Numix-Light/16/status/indicator-keyboard-En-9.svg

<?xml version="1.0" encoding="UTF-8" standalone="no"?>
<svg
   xmlns:dc="http://purl.org/dc/elements/1.1/"
   xmlns:cc="http://creativecommons.org/ns#"
   xmlns:rdf="http://www.w3.org/1999/02/22-rdf-syntax-ns#"
   xmlns:svg="http://www.w3.org/2000/svg"
   xmlns="http://www.w3.org/2000/svg"
   xmlns:sodipodi="http://sodipodi.sourceforge.net/DTD/sodipodi-0.dtd"
   xmlns:inkscape="http://www.inkscape.org/namespaces/inkscape"
   viewBox="0 0 16 16"
   id="svg2"
   version="1.1"
   inkscape:version="0.91 r13725"
   sodipodi:docname="indicator-keyboard-En-9.svg">
  <metadata
     id="metadata14">
    <rdf:RDF>
      <cc:Work
         rdf:about="">
        <dc:format>image/svg+xml</dc:format>
        <dc:type
           rdf:resource="http://purl.org/dc/dcmitype/StillImage" />
      </cc:Work>
    </rdf:RDF>
  </metadata>
  <defs
     id="defs12" />
  <sodipodi:namedview
     pagecolor="#ffffff"
     bordercolor="#666666"
     borderopacity="1"
     objecttolerance="10"
     gridtolerance="10"
     guidetolerance="10"
     inkscape:pageopacity="0"
     inkscape:pageshadow="2"
     inkscape:window-width="640"
     inkscape:window-height="480"
     id="namedview10"
     showgrid="false"
     inkscape:zoom="14.75"
     inkscape:cx="8"
     inkscape:cy="8"
     inkscape:window-x="65"
     inkscape:window-y="24"
     inkscape:window-maximized="0"
     inkscape:current-layer="svg2" />
  <path
     style="fill:#353535;fill-opacity:1"
     d="M 1.5996094 0 C 0.71320937 2.9605947e-16 0 0.71320937 0 1.5996094 L 0 14.400391 C 2.9605947e-16 15.286791 0.71320937 16 1.5996094 16 L 14.400391 16 C 15.286791 16 16 15.286791 16 14.400391 L 16 1.5996094 C 16 0.71320937 15.286791 0 14.400391 0 L 1.5996094 0 z M 1.9179688 4.859375 L 5.5175781 4.859375 L 5.5175781 5.390625 L 2.5292969 5.390625 L 2.5292969 7.5585938 L 5.1933594 7.5585938 L 5.1933594 8.0800781 L 2.5292969 8.0800781 L 2.5292969 10.564453 L 5.7519531 10.564453 L 5.7519531 11.095703 L 1.9179688 11.095703 L 1.9179688 4.859375 z M 8.65625 6.3535156 C 9.01025 6.3535156 9.3050625 6.4038594 9.5390625 6.5058594 C 9.7790625 6.6078594 9.9674691 6.7552656 10.105469 6.9472656 C 10.249469 7.1332656 10.352109 7.3570938 10.412109 7.6210938 C 10.472109 7.8850938 10.501953 8.1761406 10.501953 8.4941406 L 10.501953 11.095703 L 9.9160156 11.095703 L 9.9160156 8.6835938 C 9.9160156 8.3535938 9.89175 8.0756562 9.84375 7.8476562 C 9.80175 7.6196563 9.7271406 7.4330625 9.6191406 7.2890625 C 9.5171406 7.1450625 9.3790781 7.0424219 9.2050781 6.9824219 C 9.0370781 6.9164219 8.8244062 6.8847656 8.5664062 6.8847656 C 8.2904062 6.8847656 8.0497031 6.8996875 7.8457031 6.9296875 C 7.6477031 6.9596875 7.5189844 6.9857656 7.4589844 7.0097656 L 7.4589844 11.095703 L 6.875 11.095703 L 6.875 6.6054688 C 7.049 6.5574688 7.2821719 6.5033594 7.5761719 6.4433594 C 7.8701719 6.3833594 8.23025 6.3535156 8.65625 6.3535156 z M 12.783203 8.7539062 C 13.208303 8.7539062 13.529647 8.9047781 13.748047 9.2050781 C 13.970347 9.5014781 14.082031 9.9168718 14.082031 10.451172 C 14.082031 11.266272 13.886094 11.879569 13.496094 12.292969 C 13.106094 12.702469 12.537862 12.908203 11.789062 12.908203 L 11.777344 12.591797 C 12.034744 12.591797 12.269875 12.562406 12.484375 12.503906 C 12.698875 12.445406 12.885016 12.355275 13.041016 12.234375 C 13.200916 12.109575 13.330234 11.952819 13.427734 11.761719 C 13.529134 11.566719 13.595759 11.331594 13.630859 11.058594 C 13.525559 11.113194 13.400153 11.162178 13.251953 11.205078 C 13.103753 11.244078 12.945044 11.263672 12.777344 11.263672 C 12.558944 11.263672 12.372803 11.230363 12.220703 11.164062 C 12.068603 11.093863 11.947116 11.001772 11.853516 10.888672 C 11.759916 10.775572 11.691338 10.646247 11.648438 10.498047 C 11.605537 10.349847 11.583984 10.195056 11.583984 10.035156 C 11.583984 9.8869562 11.607497 9.7360844 11.654297 9.5839844 C 11.701097 9.4318844 11.773594 9.2966812 11.871094 9.1757812 C 11.972494 9.0509812 12.095941 8.9490938 12.244141 8.8710938 C 12.396241 8.7930937 12.576503 8.7539062 12.783203 8.7539062 z M 12.789062 9.0878906 C 12.644762 9.0878906 12.521322 9.1153219 12.419922 9.1699219 C 12.318522 9.2206219 12.238181 9.2892 12.175781 9.375 C 12.113381 9.4608 12.066356 9.5587751 12.035156 9.671875 C 12.007856 9.784975 11.994141 9.9025374 11.994141 10.023438 C 11.994141 10.331537 12.062719 10.560784 12.199219 10.708984 C 12.339619 10.857184 12.5434 10.929687 12.8125 10.929688 C 12.9919 10.929688 13.14865 10.910094 13.28125 10.871094 C 13.41775 10.828194 13.543156 10.781163 13.660156 10.726562 C 13.664023 10.679763 13.666016 10.634697 13.666016 10.591797 C 13.669949 10.548897 13.671875 10.499913 13.671875 10.445312 C 13.671875 10.262013 13.658159 10.087628 13.630859 9.9238281 C 13.607459 9.7600281 13.560434 9.6169874 13.490234 9.4921875 C 13.423934 9.3673875 13.335756 9.2694188 13.222656 9.1992188 C 13.109556 9.1251188 12.964563 9.0878906 12.789062 9.0878906 z "
     id="path4" />
</svg>

<svg xmlns="http://www.w3.org/2000/svg" viewBox="0 0 16 16">
 <path d="m 1.6 0 c -0.886 0 -1.6 0.713 -1.6 1.6 l 0 12.801 c 0 0.886 0.713 1.6 1.6 1.6 l 12.801 0 c 0.886 0 1.6 -0.713 1.6 -1.6 l 0 -12.801 c 0 -0.886 -0.713 -1.6 -1.6 -1.6 l -12.801 0 z m 0.318 4.859 l 3.6 0 l 0 0.531 l -2.988 0 l 0 2.168 l 2.664 0 l 0 0.521 l -2.664 0 l 0 2.484 l 3.223 0 l 0 0.531 l -3.834 0 l 0 -6.236 z m 6.738 1.494 c 0.354 0 0.649 0.05 0.883 0.152 c 0.24 0.102 0.428 0.249 0.566 0.441 c 0.144 0.186 0.247 0.41 0.307 0.674 c 0.06 0.264 0.09 0.555 0.09 0.873 l 0 2.602 l -0.586 0 l 0 -2.412 c 0 -0.33 -0.024 -0.608 -0.072 -0.836 c -0.042 -0.228 -0.117 -0.415 -0.225 -0.559 c -0.102 -0.144 -0.24 -0.247 -0.414 -0.307 c -0.168 -0.066 -0.381 -0.098 -0.639 -0.098 c -0.276 0 -0.517 0.015 -0.721 0.045 c -0.198 0.03 -0.327 0.056 -0.387 0.08 l 0 4.086 l -0.584 0 l 0 -4.49 c 0.174 -0.048 0.407 -0.102 0.701 -0.162 c 0.294 -0.06 0.654 -0.09 1.08 -0.09 z m 4.127 2.4 c 0.425 0 0.746 0.151 0.965 0.451 c 0.222 0.296 0.334 0.712 0.334 1.246 c 0 0.815 -0.196 1.428 -0.586 1.842 c -0.39 0.41 -0.958 0.615 -1.707 0.615 l -0.012 -0.316 c 0.257 0 0.493 -0.029 0.707 -0.088 c 0.214 -0.059 0.401 -0.149 0.557 -0.27 c 0.16 -0.125 0.289 -0.282 0.387 -0.473 c 0.101 -0.195 0.168 -0.43 0.203 -0.703 c -0.105 0.055 -0.231 0.104 -0.379 0.146 c -0.148 0.039 -0.307 0.059 -0.475 0.059 c -0.218 0 -0.405 -0.033 -0.557 -0.1 c -0.152 -0.07 -0.274 -0.162 -0.367 -0.275 c -0.094 -0.113 -0.162 -0.242 -0.205 -0.391 c -0.043 -0.148 -0.064 -0.303 -0.064 -0.463 c 0 -0.148 0.024 -0.299 0.07 -0.451 c 0.047 -0.152 0.119 -0.287 0.217 -0.408 c 0.101 -0.125 0.225 -0.227 0.373 -0.305 c 0.152 -0.078 0.332 -0.117 0.539 -0.117 z m 0.006 0.334 c -0.144 0 -0.268 0.027 -0.369 0.082 c -0.101 0.051 -0.182 0.119 -0.244 0.205 c -0.062 0.086 -0.109 0.184 -0.141 0.297 c -0.027 0.113 -0.041 0.231 -0.041 0.352 c 0 0.308 0.069 0.537 0.205 0.686 c 0.14 0.148 0.344 0.221 0.613 0.221 c 0.179 0 0.336 -0.02 0.469 -0.059 c 0.136 -0.043 0.262 -0.09 0.379 -0.145 c 0.004 -0.047 0.006 -0.092 0.006 -0.135 c 0.004 -0.043 0.006 -0.092 0.006 -0.146 c 0 -0.183 -0.014 -0.358 -0.041 -0.521 c -0.023 -0.164 -0.07 -0.307 -0.141 -0.432 c -0.066 -0.125 -0.154 -0.223 -0.268 -0.293 c -0.113 -0.074 -0.258 -0.111 -0.434 -0.111 z" style="fill:#353535;fill-opacity:1"/>
</svg>
